X: 4041
M: C|
L: 1/8
K: D
(3(udcB) |\
agfd (3(fga) (fd) | fagf e^def |\
{a}gfga gbag | fedc defg |\
a2(fd) (3(fga) (fd) | fagf edef |\
g2({a}gf) gbag | {g}fedc d2 |]


